X:1
T: The Brig o' Dee
C:
R:Strathspey
Q: 128
K:D
M:4/4
L:1/16
|:A2|FA3 A3F G3F E3D|FA3 A3G F3A d4|FA3 A3F G3F E3D|G3A, F3A, EEE2 B2A2|
FA3 A3F G3F E3D|FA3 A3G F3A d4|FA3 A3F G3F E3D|G3A, F3A, EEE2 c2B2|
Ad3 d2ef g3A f3A|g3A f3A ((3e2f2d2) ((3c2B2A2) |Ad3 d2ef g3f g3b|a3g f3e d4 d2cB|
|1Ad3 d2ef g3A f3A|g3A f3A e3f g3b|((3a2g2a2) ((3d2e2f2) ((3g2f2g2) ((3B2c2d2) |((3e2f2d2) ((3c2B2A2) ((3A2B2G2) ((3F2E2D2) :|
|2Ad3 d2ef g3A f3A|g3A f3A e3f g3b|((3a2g2a2) ((3d2e2f2) ((3g2f2g2) ((3B2c2d2) |A3G F3E D4 D2||
